img/icon-api.svg

<svg xmlns="http://www.w3.org/2000/svg" width="72" height="72"><defs><linearGradient id="a" x1="0%" x2="99.58%" y1="0%" y2="99.58%"><stop offset="0%" stop-color="#33D35E"/><stop offset="100%" stop-color="#2AB6D9"/></linearGradient></defs><g fill="none" fill-rule="evenodd"><circle cx="36" cy="36" r="36" fill="url(#a)"/><path fill="#FFF" fill-rule="nonzero" d="M26.118 28.339a.586.586 0 111.135.292c-.04.156-.06.317-.06.48V42.89c0 1.058.86 1.919 1.918 1.919H42.89c.163 0 .324-.02.48-.06a.586.586 0 11.292 1.134 3.102 3.102 0 01-.772.098h-1.293v1.767c0 .345.134.67.379.914l3.855 3.855a1.84 1.84 0 012.116.346 1.84 1.84 0 010 2.6c-.358.358-.829.537-1.3.537-.47 0-.941-.18-1.3-.538a1.84 1.84 0 01-.345-2.116l-3.855-3.855a2.448 2.448 0 01-.722-1.743V45.98h-1.333v2.545a.586.586 0 01-1.172 0V45.98h-1.333v9.434a.586.586 0 01-1.172 0V45.98h-1.333v2.545a.586.586 0 01-1.172 0V45.98h-1.333v5.187a1.841 1.841 0 011.253 1.742 1.84 1.84 0 01-1.839 1.838 1.84 1.84 0 01-1.838-1.838c0-.809.525-1.497 1.252-1.742V45.98h-1.293a3.094 3.094 0 01-3.09-3.091v-1.293h-1.768c-.345 0-.67.134-.914.379l-3.854 3.853c.125.251.192.53.192.818 0 .492-.191.953-.538 1.3a1.827 1.827 0 01-1.3.539c-.492 0-.953-.191-1.3-.539a1.827 1.827 0 01-.539-1.3c0-.49.191-.952.538-1.3a1.827 1.827 0 011.3-.538c.29 0 .567.067.819.192l3.853-3.854a2.448 2.448 0 011.743-.722h1.767v-1.333h-2.545a.586.586 0 010-1.172h2.545v-1.333h-9.434a.586.586 0 010-1.172h9.434v-1.333h-2.545a.586.586 0 010-1.172h2.545v-1.333h-5.187a1.841 1.841 0 01-1.742 1.252 1.84 1.84 0 01-1.838-1.838 1.84 1.84 0 011.838-1.839c.809 0 1.497.526 1.742 1.253h5.187v-1.293c0-.261.033-.521.098-.772zm20.528 25.156a.665.665 0 00-.47 1.138.667.667 0 10.47-1.138zM30.99 52.243a.667.667 0 10.002 1.334.667.667 0 00-.002-1.334zM17.838 45.98a.662.662 0 00-.47.195.662.662 0 00-.196.471.662.662 0 00.667.667.662.662 0 00.667-.667.662.662 0 00-.196-.47.662.662 0 00-.472-.196zM36 16c.324 0 .586.262.586.586v9.434h1.333v-2.545a.586.586 0 011.172 0v2.545h1.333v-5.187a1.841 1.841 0 01-1.252-1.742 1.84 1.84 0 011.838-1.838 1.84 1.84 0 011.839 1.838c0 .809-.526 1.497-1.253 1.742v5.187h1.293a3.094 3.094 0 013.09 3.091v1.293h1.768c.345 0 .67-.135.914-.379l3.854-3.853a1.83 1.83 0 01-.192-.818c0-.492.191-.953.539-1.3a1.827 1.827 0 011.3-.539c.49 0 .952.191 1.3.539.347.347.538.809.538 1.3 0 .49-.191.952-.538 1.3a1.827 1.827 0 01-1.3.538 1.83 1.83 0 01-.819-.192l-3.853 3.854a2.448 2.448 0 01-1.743.722H45.98v1.333h2.545a.586.586 0 010 1.172H45.98v1.333h9.434a.586.586 0 110 1.172H45.98v1.333h2.545a.586.586 0 010 1.172H45.98v1.333h5.187a1.841 1.841 0 011.742-1.252 1.84 1.84 0 011.838 1.838 1.84 1.84 0 01-1.838 1.838 1.841 1.841 0 01-1.742-1.252H45.98v1.293a3.1 3.1 0 01-.097.771.586.586 0 11-1.135-.291c.04-.156.06-.317.06-.48V29.11c0-1.058-.861-1.919-1.92-1.919H29.112c-.163 0-.324.02-.48.06a.586.586 0 11-.292-1.134c.251-.065.51-.098.772-.098h1.293v-1.767c0-.345-.134-.67-.379-.914l-3.855-3.855a1.841 1.841 0 01-2.116-.345 1.84 1.84 0 010-2.6 1.84 1.84 0 012.6 0 1.84 1.84 0 01.345 2.116l3.855 3.855c.466.466.722 1.085.722 1.743v1.767h1.333v-2.545a.586.586 0 011.172 0v2.545h1.333v-9.434c0-.324.262-.586.586-.586zm1.761 13.151c1.295 0 2.348.966 2.348 2.152a2 2 0 01-.058.472c1.255.345 2.171 1.406 2.171 2.66 0 .702-.3 1.372-.815 1.878.516.507.815 1.177.815 1.879 0 .955-.544 1.84-1.414 2.344-.087 1.288-1.262 2.313-2.694 2.313A2.796 2.796 0 0136 41.914a2.796 2.796 0 01-2.114.935c-1.488 0-2.7-1.106-2.7-2.465-.876-.579-1.408-1.509-1.408-2.505 0-.655.226-1.27.617-1.777a2.573 2.573 0 01-.617-1.668c0-1.253.916-2.314 2.171-2.66a2 2 0 01-.058-.47c0-1.187 1.053-2.153 2.348-2.153.7 0 1.33.284 1.761.732a2.437 2.437 0 011.761-.732zm0 1.172c-.648 0-1.175.44-1.175.98a.586.586 0 01-1.172 0c0-.54-.527-.98-1.175-.98-.649 0-1.176.44-1.176.98a.87.87 0 00.215.562v.001l.029.037.008.01.013.022a.586.586 0 01-.497.895l-.016-.001c-1.03.006-1.865.724-1.866 1.605 0 .319.112.625.32.886a3.57 3.57 0 011.075-.438.586.586 0 01.262 1.142c-.975.224-1.657.987-1.657 1.855 0 .481.216.942.586 1.292.1-.163.222-.315.362-.455a.586.586 0 11.826.831c-.235.234-.365.531-.365.837 0 .713.686 1.293 1.528 1.293.843 0 1.528-.58 1.528-1.293V39.13c0-.537-.401-1.025-.999-1.212a.586.586 0 01.351-1.118c.234.073.45.175.648.3v-3.254a.586.586 0 011.172 0v.749c.434-.274.96-.434 1.527-.434a.586.586 0 010 1.172c-.842 0-1.527.58-1.527 1.292v3.758c0 .713.685 1.293 1.527 1.293.843 0 1.528-.58 1.528-1.293 0-.538-.401-1.025-.999-1.213a.586.586 0 11.352-1.118 2.63 2.63 0 011.54 1.24c.324-.294.516-.688.516-1.101 0-.554-.337-1.063-.901-1.36a.586.586 0 010-1.037c.564-.298.901-.807.901-1.36 0-.882-.835-1.6-1.865-1.606h-.024a2.118 2.118 0 00-.819.164.586.586 0 11-.455-1.08c.306-.13.628-.21.962-.241a.824.824 0 00.088-.369c0-.54-.528-.98-1.176-.98zm15.148 10.02a.667.667 0 10.001 1.335.667.667 0 000-1.334zm-33.818-10.02a.667.667 0 10.001 1.335.667.667 0 00-.001-1.335zm35.07-5.636a.662.662 0 00-.47.195.662.662 0 00-.196.472.662.662 0 00.667.667c.178 0 .345-.07.47-.196a.662.662 0 00.196-.471.662.662 0 00-.195-.472.662.662 0 00-.471-.195zm-13.15-6.263a.667.667 0 100 1.335.667.667 0 000-1.335zm-15.657-1.252a.667.667 0 10.002 1.333.667.667 0 00-.002-1.333z"/></g></svg>

<?xml version="1.0" encoding="UTF-8" standalone="no"?>
<!DOCTYPE svg PUBLIC "-//W3C//DTD SVG 1.1//EN" "http://www.w3.org/Graphics/SVG/1.1/DTD/svg11.dtd">
<svg width="100%" height="100%" viewBox="0 0 72 72" version="1.1" xmlns="http://www.w3.org/2000/svg" xmlns:xlink="http://www.w3.org/1999/xlink" xml:space="preserve" xmlns:serif="http://www.serif.com/" style="fill-rule:evenodd;clip-rule:evenodd;stroke-linejoin:round;stroke-miterlimit:2;">
    <g>
        <circle cx="36" cy="36" r="36" style="fill:url(#_Linear1);"/>
        <path d="M26.118,28.339C26.183,28.079 26.418,27.894 26.687,27.894C27.008,27.894 27.273,28.159 27.273,28.48C27.273,28.531 27.266,28.582 27.253,28.631C27.213,28.787 27.193,28.948 27.193,29.111L27.193,42.89C27.193,43.948 28.053,44.809 29.111,44.809L42.89,44.809C43.053,44.809 43.214,44.789 43.37,44.749C43.425,44.732 43.482,44.724 43.54,44.724C43.861,44.724 44.126,44.988 44.126,45.31C44.126,45.585 43.931,45.825 43.662,45.883C43.41,45.948 43.15,45.981 42.89,45.981L41.597,45.981L41.597,47.748C41.597,48.093 41.731,48.418 41.976,48.662L45.831,52.517C46.536,52.168 47.39,52.308 47.947,52.863C48.659,53.577 48.659,54.749 47.947,55.463C47.589,55.821 47.118,56 46.647,56C46.177,56 45.706,55.82 45.347,55.462C44.792,54.905 44.653,54.051 45.002,53.346L41.147,49.491C40.683,49.03 40.423,48.402 40.425,47.748L40.425,45.98L39.092,45.98L39.092,48.525C39.092,48.846 38.827,49.111 38.506,49.111C38.185,49.111 37.92,48.846 37.92,48.525L37.92,45.98L36.587,45.98L36.587,55.414C36.587,55.735 36.322,56 36.001,56C35.68,56 35.415,55.735 35.415,55.414L35.415,45.98L34.082,45.98L34.082,48.525C34.082,48.846 33.817,49.111 33.496,49.111C33.175,49.111 32.91,48.846 32.91,48.525L32.91,45.98L31.577,45.98L31.577,51.167C32.323,51.418 32.829,52.122 32.83,52.909C32.829,53.917 31.999,54.746 30.991,54.747C29.983,54.746 29.154,53.917 29.153,52.909C29.153,52.1 29.678,51.412 30.405,51.167L30.405,45.98L29.112,45.98C27.417,45.978 26.024,44.584 26.022,42.889L26.022,41.596L24.254,41.596C23.909,41.596 23.584,41.73 23.34,41.975L19.486,45.828C19.611,46.079 19.678,46.358 19.678,46.646C19.678,47.138 19.487,47.599 19.14,47.946C18.796,48.292 18.328,48.486 17.84,48.485C17.348,48.485 16.887,48.294 16.54,47.946C16.194,47.602 16,47.134 16.001,46.646C16.001,46.156 16.192,45.694 16.539,45.346C16.883,45 17.351,44.807 17.839,44.808C18.129,44.808 18.406,44.875 18.658,45L22.511,41.146C22.972,40.682 23.6,40.422 24.254,40.424L26.021,40.424L26.021,39.091L23.476,39.091C23.155,39.091 22.89,38.826 22.89,38.505C22.89,38.184 23.155,37.919 23.476,37.919L26.021,37.919L26.021,36.586L16.587,36.586C16.266,36.586 16.001,36.321 16.001,36C16.001,35.679 16.266,35.414 16.587,35.414L26.021,35.414L26.021,34.081L23.476,34.081C23.155,34.081 22.89,33.816 22.89,33.495C22.89,33.174 23.155,32.909 23.476,32.909L26.021,32.909L26.021,31.576L20.834,31.576C20.582,32.322 19.879,32.827 19.092,32.828C18.084,32.827 17.255,31.998 17.254,30.99C17.255,29.982 18.084,29.152 19.092,29.151C19.901,29.151 20.589,29.677 20.834,30.404L26.021,30.404L26.021,29.111C26.021,28.85 26.054,28.59 26.119,28.339L26.118,28.339ZM46.648,53.495L46.643,53.495C46.279,53.495 45.978,53.795 45.978,54.16C45.978,54.338 46.05,54.508 46.176,54.633C46.301,54.758 46.471,54.829 46.648,54.829C47.014,54.829 47.315,54.528 47.315,54.162C47.315,53.796 47.014,53.495 46.648,53.495ZM30.99,52.243C30.624,52.244 30.324,52.544 30.324,52.91C30.324,53.276 30.625,53.577 30.991,53.577C30.991,53.577 30.992,53.577 30.992,53.577C31.358,53.576 31.658,53.276 31.658,52.91C31.658,52.544 31.357,52.243 30.991,52.243C30.991,52.243 30.99,52.243 30.99,52.243ZM17.838,45.98C17.662,45.98 17.492,46.05 17.368,46.175C17.242,46.299 17.172,46.469 17.172,46.646C17.172,46.648 17.172,46.649 17.172,46.651C17.172,47.014 17.471,47.313 17.834,47.313L17.844,47.313C18.207,47.313 18.506,47.014 18.506,46.651C18.506,46.649 18.506,46.648 18.506,46.646C18.506,46.47 18.435,46.3 18.31,46.176C18.185,46.05 18.015,45.98 17.838,45.98ZM36,16C36.324,16 36.586,16.262 36.586,16.586L36.586,26.02L37.919,26.02L37.919,23.475C37.919,23.154 38.184,22.889 38.505,22.889C38.826,22.889 39.091,23.154 39.091,23.475L39.091,26.02L40.424,26.02L40.424,20.833C39.678,20.581 39.173,19.878 39.172,19.091C39.173,18.083 40.002,17.254 41.01,17.253C42.018,17.254 42.848,18.083 42.849,19.091C42.849,19.9 42.323,20.588 41.596,20.833L41.596,26.02L42.889,26.02C44.584,26.022 45.977,27.416 45.979,29.111L45.979,30.404L47.747,30.404C48.092,30.404 48.417,30.269 48.661,30.025L52.515,26.172C52.388,25.918 52.323,25.638 52.323,25.354C52.323,24.862 52.514,24.401 52.862,24.054C53.206,23.708 53.674,23.514 54.162,23.515C54.652,23.515 55.114,23.706 55.462,24.054C55.809,24.401 56,24.863 56,25.354C56,25.844 55.809,26.306 55.462,26.654C55.118,27 54.65,27.193 54.162,27.192C53.878,27.192 53.597,27.127 53.343,27L49.49,30.854C49.029,31.318 48.401,31.578 47.747,31.576L45.98,31.576L45.98,32.909L48.525,32.909C48.846,32.909 49.111,33.174 49.111,33.495C49.111,33.816 48.846,34.081 48.525,34.081L45.98,34.081L45.98,35.414L55.414,35.414C55.735,35.414 56,35.679 56,36C56,36.321 55.735,36.586 55.414,36.586L45.98,36.586L45.98,37.919L48.525,37.919C48.846,37.919 49.111,38.184 49.111,38.505C49.111,38.826 48.846,39.091 48.525,39.091L45.98,39.091L45.98,40.424L51.167,40.424C51.419,39.678 52.122,39.173 52.909,39.172C53.917,39.173 54.746,40.002 54.747,41.01C54.746,42.018 53.917,42.847 52.909,42.848C52.122,42.847 51.419,42.342 51.167,41.596L45.98,41.596L45.98,42.889C45.98,43.149 45.948,43.408 45.883,43.66C45.821,43.924 45.584,44.113 45.312,44.113C44.991,44.113 44.726,43.849 44.726,43.527C44.726,43.474 44.734,43.42 44.748,43.369C44.788,43.213 44.808,43.052 44.808,42.889L44.808,29.11C44.808,28.052 43.947,27.191 42.888,27.191L29.112,27.191C28.949,27.191 28.788,27.211 28.632,27.251C28.577,27.268 28.52,27.276 28.462,27.276C28.141,27.276 27.876,27.012 27.876,26.69C27.876,26.415 28.071,26.175 28.34,26.117C28.591,26.052 28.85,26.019 29.112,26.019L30.405,26.019L30.405,24.252C30.405,23.907 30.271,23.582 30.026,23.338L26.171,19.483C25.466,19.832 24.612,19.693 24.055,19.138C23.343,18.424 23.343,17.252 24.055,16.538C24.769,15.826 25.941,15.826 26.655,16.538C27.21,17.095 27.349,17.949 27,18.654L30.855,22.509C31.321,22.975 31.577,23.594 31.577,24.252L31.577,26.019L32.91,26.019L32.91,23.474C32.91,23.153 33.175,22.888 33.496,22.888C33.817,22.888 34.082,23.153 34.082,23.474L34.082,26.019L35.415,26.019L35.415,16.585C35.415,16.261 35.677,15.999 36.001,15.999L36,16ZM37.761,29.151C39.056,29.151 40.109,30.117 40.109,31.303C40.109,31.462 40.089,31.621 40.051,31.775C41.306,32.12 42.222,33.181 42.222,34.435C42.222,35.137 41.922,35.807 41.407,36.313C41.923,36.82 42.222,37.49 42.222,38.192C42.222,39.147 41.678,40.032 40.808,40.536C40.721,41.824 39.546,42.849 38.114,42.849C37.308,42.857 36.537,42.516 36,41.914C35.463,42.516 34.692,42.857 33.886,42.849C32.398,42.849 31.186,41.743 31.186,40.384C30.31,39.805 29.778,38.875 29.778,37.879C29.778,37.224 30.004,36.609 30.395,36.102C29.998,35.637 29.779,35.046 29.778,34.434C29.778,33.181 30.694,32.12 31.949,31.774C31.911,31.62 31.892,31.462 31.891,31.304C31.891,30.117 32.944,29.151 34.239,29.151C34.939,29.151 35.569,29.435 36,29.883C36.463,29.41 37.099,29.146 37.761,29.151ZM37.761,30.323C37.113,30.323 36.586,30.763 36.586,31.303C36.586,31.624 36.321,31.889 36,31.889C35.679,31.889 35.414,31.624 35.414,31.303C35.414,30.763 34.887,30.323 34.239,30.323C33.59,30.323 33.063,30.763 33.063,31.303C33.066,31.51 33.142,31.709 33.278,31.865L33.278,31.866L33.307,31.903L33.315,31.913L33.328,31.935C33.386,32.028 33.416,32.135 33.416,32.244C33.416,32.565 33.152,32.83 32.831,32.83L32.815,32.829C31.785,32.835 30.95,33.553 30.949,34.434C30.949,34.753 31.061,35.059 31.269,35.32C31.601,35.116 31.964,34.968 32.344,34.882C32.383,34.874 32.422,34.87 32.461,34.87C32.783,34.87 33.047,35.135 33.047,35.456C33.047,35.723 32.865,35.958 32.606,36.024C31.631,36.248 30.949,37.011 30.949,37.879C30.949,38.36 31.165,38.821 31.535,39.171C31.635,39.008 31.757,38.856 31.897,38.716C32.007,38.601 32.16,38.536 32.32,38.536C32.641,38.536 32.906,38.8 32.906,39.122C32.906,39.283 32.84,39.436 32.723,39.547C32.488,39.781 32.358,40.078 32.358,40.384C32.358,41.097 33.044,41.677 33.886,41.677C34.729,41.677 35.414,41.097 35.414,40.384L35.414,39.13C35.414,38.593 35.013,38.105 34.415,37.918C34.177,37.838 34.015,37.614 34.015,37.362C34.015,37.041 34.279,36.776 34.601,36.776C34.657,36.776 34.712,36.784 34.766,36.8C35,36.873 35.216,36.975 35.414,37.1L35.414,33.846C35.414,33.525 35.679,33.26 36,33.26C36.321,33.26 36.586,33.525 36.586,33.846L36.586,34.595C37.02,34.321 37.546,34.161 38.113,34.161C38.434,34.161 38.699,34.426 38.699,34.747C38.699,35.068 38.434,35.333 38.113,35.333C37.271,35.333 36.586,35.913 36.586,36.625L36.586,40.383C36.586,41.096 37.271,41.676 38.113,41.676C38.956,41.676 39.641,41.096 39.641,40.383C39.641,39.845 39.24,39.358 38.642,39.17C38.399,39.093 38.232,38.866 38.232,38.611C38.232,38.29 38.497,38.025 38.818,38.025C38.878,38.025 38.937,38.034 38.994,38.052C39.649,38.249 40.202,38.694 40.534,39.292C40.858,38.998 41.05,38.604 41.05,38.191C41.05,37.637 40.713,37.128 40.149,36.831C39.957,36.73 39.836,36.53 39.836,36.313C39.836,36.095 39.957,35.895 40.149,35.794C40.713,35.496 41.05,34.987 41.05,34.434C41.05,33.552 40.215,32.834 39.185,32.828L39.161,32.828C38.88,32.828 38.601,32.884 38.342,32.992C38.268,33.024 38.189,33.04 38.109,33.04C37.787,33.04 37.523,32.776 37.523,32.454C37.523,32.217 37.667,32.002 37.887,31.912C38.193,31.782 38.515,31.702 38.849,31.671C38.907,31.557 38.937,31.43 38.937,31.302C38.937,30.762 38.409,30.322 37.761,30.322L37.761,30.323ZM52.909,40.343C52.543,40.343 52.242,40.645 52.242,41.011C52.242,41.377 52.543,41.678 52.909,41.678C52.91,41.678 52.91,41.678 52.91,41.678C53.276,41.678 53.577,41.377 53.577,41.011C53.577,40.645 53.276,40.344 52.91,40.344L52.909,40.343ZM19.091,30.323C18.725,30.323 18.424,30.625 18.424,30.991C18.424,31.357 18.725,31.658 19.091,31.658C19.092,31.658 19.092,31.658 19.092,31.658C19.458,31.658 19.759,31.356 19.759,30.991C19.759,30.624 19.458,30.323 19.091,30.323C19.091,30.323 19.091,30.323 19.091,30.323ZM54.161,24.687C53.985,24.687 53.815,24.757 53.691,24.882C53.565,25.007 53.495,25.177 53.495,25.354C53.495,25.356 53.495,25.357 53.495,25.359C53.495,25.722 53.794,26.021 54.157,26.021C54.159,26.021 54.16,26.021 54.162,26.021C54.34,26.021 54.507,25.951 54.632,25.825C54.758,25.701 54.828,25.531 54.828,25.354C54.829,25.177 54.758,25.007 54.633,24.882C54.508,24.757 54.339,24.687 54.162,24.687L54.161,24.687ZM41.011,18.424C40.645,18.424 40.344,18.725 40.344,19.092C40.344,19.458 40.645,19.759 41.011,19.759C41.377,19.759 41.679,19.458 41.679,19.092C41.679,18.725 41.377,18.424 41.011,18.424ZM25.354,17.172C25.346,17.172 25.337,17.172 25.329,17.172C24.963,17.172 24.662,17.473 24.662,17.839C24.662,18.204 24.963,18.506 25.329,18.506C25.338,18.506 25.347,18.505 25.356,18.505C25.712,18.491 25.996,18.194 25.996,17.839C25.996,17.482 25.71,17.185 25.354,17.172Z" style="fill:white;fill-rule:nonzero;"/>
    </g>
    <defs>
        <linearGradient id="_Linear1" x1="0" y1="0" x2="1" y2="0" gradientUnits="userSpaceOnUse" gradientTransform="matrix(71.6976,71.6976,-71.6976,71.6976,0,0)"><stop offset="0" style="stop-color:rgb(51,211,94);stop-opacity:1"/><stop offset="1" style="stop-color:rgb(42,182,217);stop-opacity:1"/></linearGradient>
    </defs>
</svg>
